hero/outline/ellipsis-vertical.svg

<svg width="24" height="24" viewBox="0 0 24 24" fill="none" xmlns="http://www.w3.org/2000/svg">
<path d="M12 6.75C11.5858 6.75 11.25 6.41421 11.25 6C11.25 5.58579 11.5858 5.25 12 5.25C12.4142 5.25 12.75 5.58579 12.75 6C12.75 6.41421 12.4142 6.75 12 6.75Z" stroke="#0F172A" stroke-width="1.5" stroke-linecap="round" stroke-linejoin="round"/>
<path d="M12 12.75C11.5858 12.75 11.25 12.4142 11.25 12C11.25 11.5858 11.5858 11.25 12 11.25C12.4142 11.25 12.75 11.5858 12.75 12C12.75 12.4142 12.4142 12.75 12 12.75Z" stroke="#0F172A" stroke-width="1.5" stroke-linecap="round" stroke-linejoin="round"/>
<path d="M12 18.75C11.5858 18.75 11.25 18.4142 11.25 18C11.25 17.5858 11.5858 17.25 12 17.25C12.4142 17.25 12.75 17.5858 12.75 18C12.75 18.4142 12.4142 18.75 12 18.75Z" stroke="#0F172A" stroke-width="1.5" stroke-linecap="round" stroke-linejoin="round"/>
</svg>

<svg viewBox="0 0 24 24" xmlns="http://www.w3.org/2000/svg"><path fill="none" stroke="#000" stroke-linecap="round" stroke-linejoin="round" stroke-width="1.5" d="M12 6.75v0c-.42 0-.75-.34-.75-.75 0-.42.33-.75.75-.75v0c.41 0 .75.33.75.75 0 .41-.34.75-.75.75Zm0 6v0c-.42 0-.75-.34-.75-.75 0-.42.33-.75.75-.75v0c.41 0 .75.33.75.75 0 .41-.34.75-.75.75Zm0 6v0c-.42 0-.75-.34-.75-.75 0-.42.33-.75.75-.75v0c.41 0 .75.33.75.75 0 .41-.34.75-.75.75Z"/></svg>
